X:7304
T:Humors Of Whiskey,The
M:6/8
L:1/8
R:Jig
K:D
A|"D"dfd "A"ecA|"Bm"dcB "A7"AGF|"G"GBB "D"FAA|"G"GFG "A7"E2A|"D"dcd "A"e
cA|"D"dcB "A7"AFA|"G"Bcd "A"efg|"D"fdd d2:||:B|"D"AFA "Bm"dcd|"G"BGB "A7
"ede|"D"AFA "Bm"dAF|"G"GFG "A7"EFG|"D"AFA "Bm"dcd|"G"BGB "A7"ede|"D"faf
"A7"ede|"D"fdd d2:|
